X:304
T:Schottis efter Magnus Andersson
R:polka 32 schottische
C:efter Magnus Andersson, Eskilskulla
A:SmÃ¥land
Z:id:hn-schottis-12
M:2/2
L:1/8
Q:1/2=70
K:D
|:A2fe d2d2|Addc B2B2|Bgge cAce|dcdf A4|
A2fe d2d2|Addc B2B2|Bgge cAce|1 d2f2 d4:|2 d2f2 d3f||
|:afdf Adfa|(3agaba g2ef|gece Aceg|(3gfgag f2df|
afdf Adfa|a2a2 b3b|bafa agec|1 d2f2 d3f:|2 d2f2 d4||

